dist/assets/img/logos/logo_white.svg

<svg width="323" height="59" fill="none" xmlns="http://www.w3.org/2000/svg"><path d="M45 29.5C45 39.191 37.363 47 28 47s-17-7.809-17-17.5C11 19.809 18.637 12 28 12s17 7.809 17 17.5ZM28 0v59m31-29H0m49.134 21.067L7.414 9.348m-.057 40.305 41.72-41.72" stroke="#fff" stroke-width="2"/><path d="m101.68 46.348-.056-.336C101.036 44.024 97.984 41 95.8 41H82.164v-.28a59.88 59.88 0 0 0 .168-4.48V21.792c-.532 0-1.96.308-2.688.504l-.112-.168.644-.728h6.58v.28a79.777 79.777 0 0 0-.14 4.48v14.28h7.728V26.16c0-1.484-.028-2.996-.14-4.48v-.28h4.592v.28a59.88 59.88 0 0 0-.168 4.48v10.08c0 1.4.056 2.828.14 4.228h2.184l-.616-1.232h.84l.924 6.972-.42.14Zm18.291-6.244.084.168-.504.728h-5.432v-.28c.056-1.484.112-2.996.112-4.48V29.1l-9.212 12.712h-.252c.056-1.596.084-3.5.084-6.132v-8.288c-.42 0-1.568.308-2.156.504l-.084-.168.504-.728h2.436c.812 0 2.38-.084 2.996-.196l.084.168c-.112 1.26-.168 3.052-.168 4.788v4.34l6.608-9.1h.364c.42 0 1.736-.084 2.464-.196l.084.168a75.627 75.627 0 0 0-.168 4.788v8.848c.42 0 1.568-.336 2.156-.504Zm11.956 6.496v-.28c.056-1.484.112-2.996.112-4.48v-3.724c-.756 2.016-2.24 3.164-4.396 3.164-3.304 0-5.684-3.08-5.684-7.28 0-4.34 2.296-7.28 5.684-7.28 2.212 0 3.668 1.12 4.396 3.08v-8.008c-.42 0-1.568.308-2.156.504l-.084-.168.504-.728h2.436c.812 0 2.38-.084 2.996-.196l.056.168a77.73 77.73 0 0 0-.14 4.788v3.724c.756-2.016 2.24-3.164 4.396-3.164 3.304 0 5.684 3.052 5.684 7.28 0 4.34-2.296 7.28-5.684 7.28-2.212 0-3.668-1.12-4.396-3.108v8.036c.448 0 1.68-.308 2.324-.504l.084.168-.56.728h-5.572Zm-2.94-6.188c1.876 0 3.22-2.604 3.22-6.412 0-3.836-1.344-6.44-3.22-6.44-1.904 0-3.22 2.604-3.22 6.44 0 3.836 1.316 6.412 3.22 6.412Zm9.716 0c1.904 0 3.22-2.576 3.22-6.412s-1.316-6.44-3.22-6.44c-1.876 0-3.22 2.604-3.22 6.44 0 3.808 1.344 6.412 3.22 6.412Zm11.018 6.188v-.28c.084-1.484.14-2.996.14-4.48V27.392c-.42 0-1.568.308-2.156.504l-.084-.168.504-.728h2.408c.812 0 2.38-.084 3.024-.196l.028.168a43.85 43.85 0 0 0-.112 2.94c.812-2.044 2.436-3.192 4.788-3.192 3.584 0 6.188 3.052 6.188 7.28 0 4.34-2.492 7.28-6.188 7.28-2.408 0-4.004-1.148-4.816-3.192v8.12c.532 0 1.96-.308 2.688-.504l.112.168-.644.728h-5.88Zm7.252-6.188c2.156 0 3.668-2.576 3.668-6.412s-1.512-6.44-3.668-6.44c-2.408 0-3.696 3.304-3.696 6.44 0 3.808 1.54 6.412 3.696 6.412Zm17.835.868c-4.592 0-7.868-3.024-7.868-7.28s3.276-7.28 7.868-7.28c4.592 0 7.868 3.024 7.868 7.28s-3.276 7.28-7.868 7.28Zm0-.476c2.352 0 4.032-2.772 4.032-6.804s-1.68-6.832-4.032-6.832c-2.38 0-4.032 2.8-4.032 6.832s1.652 6.804 4.032 6.804Zm11.854.196v-.28c.084-1.484.14-2.996.14-4.48v-8.848c-.42 0-1.568.308-2.156.504l-.084-.168.504-.728h6.44c4.228 0 6.804 1.344 6.804 3.556 0 1.764-1.344 2.968-3.584 3.36 2.8.252 4.48 1.512 4.48 3.388 0 2.296-2.716 3.696-7.196 3.696h-5.348Zm3.724-7.28h1.092c2.296 0 3.78-1.232 3.78-3.164 0-1.848-1.484-3.024-3.78-3.024h-1.092v6.188Zm0 6.832h1.232c2.548 0 4.228-1.26 4.228-3.108 0-1.932-1.68-3.22-4.256-3.22h-1.204v6.328Zm27.612-.448.084.168-.504.728h-5.432v-.28c.056-1.484.112-2.996.112-4.48V29.1l-9.212 12.712h-.252c.056-1.596.084-3.5.084-6.132v-8.288c-.42 0-1.568.308-2.156.504l-.084-.168.504-.728h2.436c.812 0 2.38-.084 2.996-.196l.084.168c-.112 1.26-.168 3.052-.168 4.788v4.34l6.608-9.1h.364c.42 0 1.736-.084 2.464-.196l.084.168a75.627 75.627 0 0 0-.168 4.788v8.848c.42 0 1.568-.336 2.156-.504Zm15.149-21.056v.308c0 3.276-2.072 5.516-5.124 5.516-3.052 0-5.124-2.24-5.124-5.516v-.308h.448v.168c0 1.764 1.876 2.94 4.676 2.94 2.828 0 4.704-1.176 4.704-2.94v-.168h.42Zm3.5 21.056.084.168-.504.728h-5.432v-.28c.056-1.484.112-2.996.112-4.48V29.1l-9.212 12.712h-.252c.056-1.596.084-3.5.084-6.132v-8.288c-.42 0-1.568.308-2.156.504l-.084-.168.504-.728h2.436c.812 0 2.38-.084 2.996-.196l.084.168c-.112 1.26-.168 3.052-.168 4.788v4.34l6.608-9.1h.364c.42 0 1.736-.084 2.464-.196l.084.168a75.627 75.627 0 0 0-.168 4.788v8.848c.42 0 1.568-.336 2.156-.504Zm7.448.896v-.308c1.26-1.736 3.752-6.804 4.76-9.38l2.66-6.636c-1.008-1.512-2.128-2.744-3.052-2.968l.056-.308h6.496a75.669 75.669 0 0 0 1.82 4.732l4.396 10.472c.588 1.4 1.036 2.352 1.904 4.116V41h-6.776l-.644-.728.112-.168c.728.168 2.156.504 2.688.504l-2.492-6.048h-7.868c-.812 2.212-1.484 4.76-1.652 6.048.532 0 1.96-.336 2.688-.504l.112.168-.644.728h-4.564Zm4.256-6.972h7.448l-2.352-5.684a24.544 24.544 0 0 0-1.624-3.192l-3.472 8.876ZM265.822 46.6v-.28c.084-1.484.14-2.996.14-4.48V27.392c-.42 0-1.568.308-2.156.504l-.084-.168.504-.728h2.408c.812 0 2.38-.084 3.024-.196l.028.168a43.85 43.85 0 0 0-.112 2.94c.812-2.044 2.436-3.192 4.788-3.192 3.584 0 6.188 3.052 6.188 7.28 0 4.34-2.492 7.28-6.188 7.28-2.408 0-4.004-1.148-4.816-3.192v8.12c.532 0 1.96-.308 2.688-.504l.112.168-.644.728h-5.88Zm7.252-6.188c2.156 0 3.668-2.576 3.668-6.412s-1.512-6.44-3.668-6.44c-2.408 0-3.696 3.304-3.696 6.44 0 3.808 1.54 6.412 3.696 6.412Zm8.608.588v-.196c1.96-1.372 4.368-4.284 5.096-5.264l.812-.98-1.82-2.52c-1.512-2.184-3.248-4.032-4.116-4.816V27h6.972l.56.728-.084.168c-.644-.196-1.876-.504-2.324-.504l3.612 4.928.98-1.204c.952-1.232 1.848-2.744 2.436-3.724-.476 0-1.68.308-2.324.504l-.084-.168.56-.728h4.088v.196c-1.456.952-3.164 2.604-4.564 4.564l-.812.952 1.624 2.212c1.344 1.932 2.912 4.172 4.704 5.88V41h-7.14l-.644-.728.112-.168c.728.168 2.156.504 2.688.504l-4.116-5.656-1.456 1.932c-.924 1.26-1.708 2.464-2.324 3.724.532 0 1.96-.336 2.688-.504l.112.168-.644.728h-4.592Zm17.93-20.86h4.424l-2.072 5.264h-.28l-2.072-5.264Zm.28 20.86v-.28c.084-1.484.14-2.996.14-4.48v-8.848c-.42 0-1.568.308-2.156.504l-.084-.168.504-.728h2.408c.84 0 2.324-.084 3.024-.196l.028.168a77.73 77.73 0 0 0-.14 4.788v8.848c.42 0 1.568-.336 2.156-.504l.084.168-.504.728h-5.46Zm9.352 0v-.28c.084-1.484.14-2.996.14-4.48v-8.848c-.42 0-1.568.308-2.156.504l-.084-.168.504-.728h6.44c4.228 0 6.804 1.344 6.804 3.556 0 1.764-1.344 2.968-3.584 3.36 2.8.252 4.48 1.512 4.48 3.388 0 2.296-2.716 3.696-7.196 3.696h-5.348Zm3.724-7.28h1.092c2.296 0 3.78-1.232 3.78-3.164 0-1.848-1.484-3.024-3.78-3.024h-1.092v6.188Zm0 6.832h1.232c2.548 0 4.228-1.26 4.228-3.108 0-1.932-1.68-3.22-4.256-3.22h-1.204v6.328Z" fill="#fff"/></svg>

<svg width="323" height="59" viewBox="0 0 323 59" fill="none" xmlns="http://www.w3.org/2000/svg">
<path d="M45 29.5C45 39.191 37.3632 47 28 47C18.6368 47 11 39.191 11 29.5C11 19.809 18.6368 12 28 12C37.3632 12 45 19.809 45 29.5Z" stroke="white" stroke-width="2"/>
<line x1="28" y1="4.37114e-08" x2="28" y2="59" stroke="white" stroke-width="2"/>
<line x1="59" y1="30" x2="-8.74228e-08" y2="30" stroke="white" stroke-width="2"/>
<line x1="49.1337" y1="51.067" x2="7.41441" y2="9.34767" stroke="white" stroke-width="2"/>
<line x1="7.35735" y1="49.6528" x2="49.0766" y2="7.93346" stroke="white" stroke-width="2"/>
<path d="M101.68 46.348L101.624 46.012C101.036 44.024 97.984 41 95.8 41H82.164V40.72C82.276 39.236 82.332 37.724 82.332 36.24V21.792C81.8 21.792 80.372 22.1 79.644 22.296L79.532 22.128L80.176 21.4H86.756V21.68C86.672 23.164 86.616 24.676 86.616 26.16V40.44H94.344V26.16C94.344 24.676 94.316 23.164 94.204 21.68V21.4H98.796V21.68C98.684 23.164 98.628 24.676 98.628 26.16V36.24C98.628 37.64 98.684 39.068 98.768 40.468H100.952L100.336 39.236H101.176L102.1 46.208L101.68 46.348ZM119.971 40.104L120.055 40.272L119.551 41H114.119V40.72C114.175 39.236 114.231 37.724 114.231 36.24V29.1L105.019 41.812H104.767C104.823 40.216 104.851 38.312 104.851 35.68V27.392C104.431 27.392 103.283 27.7 102.695 27.896L102.611 27.728L103.115 27H105.551C106.363 27 107.931 26.916 108.547 26.804L108.631 26.972C108.519 28.232 108.463 30.024 108.463 31.76V36.1L115.071 27H115.435C115.855 27 117.171 26.916 117.899 26.804L117.983 26.972C117.899 28.232 117.815 30.024 117.815 31.76V40.608C118.235 40.608 119.383 40.272 119.971 40.104ZM131.927 46.6V46.32C131.983 44.836 132.039 43.324 132.039 41.84V38.116C131.283 40.132 129.799 41.28 127.643 41.28C124.339 41.28 121.959 38.2 121.959 34C121.959 29.66 124.255 26.72 127.643 26.72C129.855 26.72 131.311 27.84 132.039 29.8V21.792C131.619 21.792 130.471 22.1 129.883 22.296L129.799 22.128L130.303 21.4H132.739C133.551 21.4 135.119 21.316 135.735 21.204L135.791 21.372C135.707 22.632 135.651 24.424 135.651 26.16V29.884C136.407 27.868 137.891 26.72 140.047 26.72C143.351 26.72 145.731 29.772 145.731 34C145.731 38.34 143.435 41.28 140.047 41.28C137.835 41.28 136.379 40.16 135.651 38.172V46.208C136.099 46.208 137.331 45.9 137.975 45.704L138.059 45.872L137.499 46.6H131.927ZM128.987 40.412C130.863 40.412 132.207 37.808 132.207 34C132.207 30.164 130.863 27.56 128.987 27.56C127.083 27.56 125.767 30.164 125.767 34C125.767 37.836 127.083 40.412 128.987 40.412ZM138.703 40.412C140.607 40.412 141.923 37.836 141.923 34C141.923 30.164 140.607 27.56 138.703 27.56C136.827 27.56 135.483 30.164 135.483 34C135.483 37.808 136.827 40.412 138.703 40.412ZM149.721 46.6V46.32C149.805 44.836 149.861 43.324 149.861 41.84V27.392C149.441 27.392 148.293 27.7 147.705 27.896L147.621 27.728L148.125 27H150.533C151.345 27 152.913 26.916 153.557 26.804L153.585 26.972C153.529 27.812 153.473 28.82 153.473 29.912C154.285 27.868 155.909 26.72 158.261 26.72C161.845 26.72 164.449 29.772 164.449 34C164.449 38.34 161.957 41.28 158.261 41.28C155.853 41.28 154.257 40.132 153.445 38.088V46.208C153.977 46.208 155.405 45.9 156.133 45.704L156.245 45.872L155.601 46.6H149.721ZM156.973 40.412C159.129 40.412 160.641 37.836 160.641 34C160.641 30.164 159.129 27.56 156.973 27.56C154.565 27.56 153.277 30.864 153.277 34C153.277 37.808 154.817 40.412 156.973 40.412ZM174.808 41.28C170.216 41.28 166.94 38.256 166.94 34C166.94 29.744 170.216 26.72 174.808 26.72C179.4 26.72 182.676 29.744 182.676 34C182.676 38.256 179.4 41.28 174.808 41.28ZM174.808 40.804C177.16 40.804 178.84 38.032 178.84 34C178.84 29.968 177.16 27.168 174.808 27.168C172.428 27.168 170.776 29.968 170.776 34C170.776 38.032 172.428 40.804 174.808 40.804ZM186.662 41V40.72C186.746 39.236 186.802 37.724 186.802 36.24V27.392C186.382 27.392 185.234 27.7 184.646 27.896L184.562 27.728L185.066 27H191.506C195.734 27 198.31 28.344 198.31 30.556C198.31 32.32 196.966 33.524 194.726 33.916C197.526 34.168 199.206 35.428 199.206 37.304C199.206 39.6 196.49 41 192.01 41H186.662ZM190.386 33.72H191.478C193.774 33.72 195.258 32.488 195.258 30.556C195.258 28.708 193.774 27.532 191.478 27.532H190.386V33.72ZM190.386 40.552H191.618C194.166 40.552 195.846 39.292 195.846 37.444C195.846 35.512 194.166 34.224 191.59 34.224H190.386V40.552ZM217.998 40.104L218.082 40.272L217.578 41H212.146V40.72C212.202 39.236 212.258 37.724 212.258 36.24V29.1L203.046 41.812H202.794C202.85 40.216 202.878 38.312 202.878 35.68V27.392C202.458 27.392 201.31 27.7 200.722 27.896L200.638 27.728L201.142 27H203.578C204.39 27 205.958 26.916 206.574 26.804L206.658 26.972C206.546 28.232 206.49 30.024 206.49 31.76V36.1L213.098 27H213.462C213.882 27 215.198 26.916 215.926 26.804L216.01 26.972C215.926 28.232 215.842 30.024 215.842 31.76V40.608C216.262 40.608 217.41 40.272 217.998 40.104ZM233.147 19.048V19.356C233.147 22.632 231.075 24.872 228.023 24.872C224.971 24.872 222.899 22.632 222.899 19.356V19.048H223.347V19.216C223.347 20.98 225.223 22.156 228.023 22.156C230.851 22.156 232.727 20.98 232.727 19.216V19.048H233.147ZM236.647 40.104L236.731 40.272L236.227 41H230.795V40.72C230.851 39.236 230.907 37.724 230.907 36.24V29.1L221.695 41.812H221.443C221.499 40.216 221.527 38.312 221.527 35.68V27.392C221.107 27.392 219.959 27.7 219.371 27.896L219.287 27.728L219.791 27H222.227C223.039 27 224.607 26.916 225.223 26.804L225.307 26.972C225.195 28.232 225.139 30.024 225.139 31.76V36.1L231.747 27H232.111C232.531 27 233.847 26.916 234.575 26.804L234.659 26.972C234.575 28.232 234.491 30.024 234.491 31.76V40.608C234.911 40.608 236.059 40.272 236.647 40.104ZM244.095 41V40.692C245.355 38.956 247.847 33.888 248.855 31.312L251.515 24.676C250.507 23.164 249.387 21.932 248.463 21.708L248.519 21.4H253.699H255.015C255.659 23.248 256.275 24.816 256.835 26.132L261.231 36.604C261.819 38.004 262.267 38.956 263.135 40.72V41H256.359L255.715 40.272L255.827 40.104C256.555 40.272 257.983 40.608 258.515 40.608L256.023 34.56H248.155C247.343 36.772 246.671 39.32 246.503 40.608C247.035 40.608 248.463 40.272 249.191 40.104L249.303 40.272L248.659 41H244.095ZM248.351 34.028H255.799L253.447 28.344C253.027 27.336 252.467 26.216 251.823 25.152L248.351 34.028ZM265.822 46.6V46.32C265.906 44.836 265.962 43.324 265.962 41.84V27.392C265.542 27.392 264.394 27.7 263.806 27.896L263.722 27.728L264.226 27H266.634C267.446 27 269.014 26.916 269.658 26.804L269.686 26.972C269.63 27.812 269.574 28.82 269.574 29.912C270.386 27.868 272.01 26.72 274.362 26.72C277.946 26.72 280.55 29.772 280.55 34C280.55 38.34 278.058 41.28 274.362 41.28C271.954 41.28 270.358 40.132 269.546 38.088V46.208C270.078 46.208 271.506 45.9 272.234 45.704L272.346 45.872L271.702 46.6H265.822ZM273.074 40.412C275.23 40.412 276.742 37.836 276.742 34C276.742 30.164 275.23 27.56 273.074 27.56C270.666 27.56 269.378 30.864 269.378 34C269.378 37.808 270.918 40.412 273.074 40.412ZM281.682 41V40.804C283.642 39.432 286.05 36.52 286.778 35.54L287.59 34.56L285.77 32.04C284.258 29.856 282.522 28.008 281.654 27.224V27H288.626L289.186 27.728L289.102 27.896C288.458 27.7 287.226 27.392 286.778 27.392L290.39 32.32L291.37 31.116C292.322 29.884 293.218 28.372 293.806 27.392C293.33 27.392 292.126 27.7 291.482 27.896L291.398 27.728L291.958 27H296.046V27.196C294.59 28.148 292.882 29.8 291.482 31.76L290.67 32.712L292.294 34.924C293.638 36.856 295.206 39.096 296.998 40.804V41H289.858L289.214 40.272L289.326 40.104C290.054 40.272 291.482 40.608 292.014 40.608L287.898 34.952L286.442 36.884C285.518 38.144 284.734 39.348 284.118 40.608C284.65 40.608 286.078 40.272 286.806 40.104L286.918 40.272L286.274 41H281.682ZM299.612 20.14H304.036L301.964 25.404H301.684L299.612 20.14ZM299.892 41V40.72C299.976 39.236 300.032 37.724 300.032 36.24V27.392C299.612 27.392 298.464 27.7 297.876 27.896L297.792 27.728L298.296 27H300.704C301.544 27 303.028 26.916 303.728 26.804L303.756 26.972C303.672 28.232 303.616 30.024 303.616 31.76V40.608C304.036 40.608 305.184 40.272 305.772 40.104L305.856 40.272L305.352 41H299.892ZM309.244 41V40.72C309.328 39.236 309.384 37.724 309.384 36.24V27.392C308.964 27.392 307.816 27.7 307.228 27.896L307.144 27.728L307.648 27H314.088C318.316 27 320.892 28.344 320.892 30.556C320.892 32.32 319.548 33.524 317.308 33.916C320.108 34.168 321.788 35.428 321.788 37.304C321.788 39.6 319.072 41 314.592 41H309.244ZM312.968 33.72H314.06C316.356 33.72 317.84 32.488 317.84 30.556C317.84 28.708 316.356 27.532 314.06 27.532H312.968V33.72ZM312.968 40.552H314.2C316.748 40.552 318.428 39.292 318.428 37.444C318.428 35.512 316.748 34.224 314.172 34.224H312.968V40.552Z" fill="white"/>
</svg>
